Yaru++/apps/16/tilix.svg

<svg height="16" width="16" xmlns="http://www.w3.org/2000/svg">
  <path d="m3.9941406 2c-1.2582.0145-2.1788906-.0306044-2.9316406.3847656-.37637.20766-.67323062.5593869-.83789062.9980469-.16467.43867-.22460938.9595775-.22460938 1.6171875v7c0 .65761.05989938 1.178528.22460938 1.617188.16467.438659.46152062.790396.83789062.998046.75275.41532 1.6734506.370196 2.9316406.384766h.0039063 8.0039061.003906c1.25819-.0145 2.178891.030604 2.931641-.384766.37637-.20766.673221-.559387.837891-.998046.16413-.438671.224609-.959578.224609-1.617188v-7c0-.65761-.059899-1.1785175-.224609-1.6171875-.16466-.43866-.461521-.7903869-.837891-.9980469-.75275-.41534-1.673441-.3702456-2.931641-.3847656h-.003906-8.0039061zm2.9023438 1.0917969c1.2300027-.0028131 2.4596864.0071657 3.6894536.015625v10.7480471c-2.3348614.031648-4.6725113-.009507-7.0058599.007812-.78646-.11198-1.9999069.290294-2.4042969-.691406-.1705-2.4656-.0888437-4.9496369-.0898437-7.4355469.12175-.84105-.29598-2.0645087.6875-2.5117187 1.6892-.21162 3.4083969-.0775025 5.1230469-.1328125zm4.6894536.0195312c.18555.0019633.37108-.0004342.55664.0019531.98572.0689001 2.254448-.1702812 2.673828.6679688.129115 1.4762267.146396 2.9608638.138672 4.4472656h-3.36914zm-8.1035161 1.8671875c-.47384.0193-.6572075.6256969-.2734375.9042969l1.4667968 1.0996094-1.4667968 1.0996093c-.53385.40104.0676925 1.2018213.6015625.8007813l2-1.5c.26732-.2.26732-.6007812 0-.8007813l-2-1.5c-.0937-.0722-.209945-.1085156-.328125-.1035156zm2.5273437 4.0039063v1h3v-1zm5.5761724.2460937h3.367187c-.01067 1.1244874-.030533 2.2498084-.007813 3.3710934-.0871.38019-.184818 1.143607-.730468 1.128907-.874991.058238-1.752094.093546-2.628906.115234z" fill="#808080"/>
</svg>

<svg xmlns="http://www.w3.org/2000/svg" xmlns:osb="http://www.openswatchbook.org/uri/2009/osb" width="16" height="16" version="1.1">
 <defs>
  <linearGradient id="linearGradient5606" osb:paint="solid">
   <stop id="stop5608" offset="0" style="stop-color:#000000"/>
  </linearGradient>
  <linearGradient id="linearGradient4526" osb:paint="solid">
   <stop id="stop4528" offset="0" style="stop-color:#ffffff"/>
  </linearGradient>
  <linearGradient id="linearGradient3600-4" osb:paint="gradient">
   <stop id="stop3602-7" offset="0" style="stop-color:#f4f4f4"/>
   <stop id="stop3604-6" offset="1" style="stop-color:#dbdbdb"/>
  </linearGradient>
 </defs>
 <g transform="translate(-472.00001,-159.99994)">
  <path style="fill:#808080" d="M 3.9941406 2 C 2.7359406 2.0145 1.81525 1.9693956 1.0625 2.3847656 C 0.68613 2.5924256 0.38926938 2.9441525 0.22460938 3.3828125 C 0.059939375 3.8214825 0 4.34239 0 5 L 0 12 C 0 12.65761 0.059899375 13.178528 0.22460938 13.617188 C 0.38927938 14.055847 0.68613 14.407584 1.0625 14.615234 C 1.81525 15.030554 2.7359506 14.98543 3.9941406 15 L 3.9980469 15 L 12.001953 15 L 12.005859 15 C 13.264049 14.9855 14.18475 15.030604 14.9375 14.615234 C 15.31387 14.407574 15.610721 14.055847 15.775391 13.617188 C 15.939521 13.178517 16 12.65761 16 12 L 16 5 C 16 4.34239 15.940101 3.8214825 15.775391 3.3828125 C 15.610731 2.9441525 15.31387 2.5924256 14.9375 2.3847656 C 14.18475 1.9694256 13.264059 2.01452 12.005859 2 L 12.001953 2 L 3.9980469 2 L 3.9941406 2 z M 6.8964844 3.0917969 C 8.1264871 3.0889838 9.3561708 3.0989626 10.585938 3.1074219 L 10.585938 13.855469 C 8.2510766 13.887117 5.9134267 13.845962 3.5800781 13.863281 C 2.7936181 13.751301 1.5801712 14.153575 1.1757812 13.171875 C 1.0052812 10.706275 1.0869375 8.2222381 1.0859375 5.7363281 C 1.2076875 4.8952781 0.7899575 3.6718194 1.7734375 3.2246094 C 3.4626375 3.0129894 5.1818344 3.1471069 6.8964844 3.0917969 z M 11.585938 3.1113281 C 11.771488 3.1132914 11.957018 3.1108939 12.142578 3.1132812 C 13.128298 3.1821813 14.397026 2.943 14.816406 3.78125 C 14.945521 5.2574767 14.962802 6.7421138 14.955078 8.2285156 L 11.585938 8.2285156 L 11.585938 3.1113281 z M 3.4824219 4.9785156 C 3.0085819 4.9978156 2.8252144 5.6042125 3.2089844 5.8828125 L 4.6757812 6.9824219 L 3.2089844 8.0820312 C 2.6751344 8.4830712 3.2766769 9.2838525 3.8105469 8.8828125 L 5.8105469 7.3828125 C 6.0778669 7.1828125 6.0778669 6.7820313 5.8105469 6.5820312 L 3.8105469 5.0820312 C 3.7168469 5.0098312 3.6006019 4.9735156 3.4824219 4.9785156 z M 6.0097656 8.9824219 L 6.0097656 9.9824219 L 9.0097656 9.9824219 L 9.0097656 8.9824219 L 6.0097656 8.9824219 z M 11.585938 9.2285156 L 14.953125 9.2285156 C 14.942455 10.353003 14.922592 11.478324 14.945312 12.599609 C 14.858212 12.979799 14.760494 13.743216 14.214844 13.728516 C 13.339853 13.786754 12.46275 13.822062 11.585938 13.84375 L 11.585938 9.2285156 z" transform="translate(472.00001,159.99994)"/>
 </g>
</svg>
